X: 55
T:Fair and Softly
M:3/4
L:1/8
Q:1/4=80
K:F
"D"d2D2de|f2 (3def (3def|"C"e2C2ef|g2(3efg (3efg|
"D"d2D2fg|a2(3fga (3fga|"Gm"b2g3f/g/|"A"a6||
|:"F"a2 (3 fga (3fga|"Gm"b2g2E2|"C"g2 (3efg (3efg|"Dm"a2f2D2|
"Dm"f2 (3=B^cd (3=B^cd|"A"^c2A2 "Dm"d2|"Gm"e2"A"e4|"Dm"d6:|
